X:1
T:Song of Christmas, 77.77.77 D
T:Song of Christmas, 77.77.77 D
T:Pluma M. Kimball Brown, 1896
T:Public Domain Courtesy of the Cyber Hymnal™
C:Pluma M. Kimball Brown, 1896
Z:Public Domain
Z:Courtesy of the Cyber Hymnal™
%%score ( 1 2 ) ( 3 4 )
L:1/8
Q:1/4=77
M:4/4
K:Ab
V:1 treble 
V:2 treble 
V:3 bass 
V:4 bass 
V:1
 [Ec][Ee][GB][Gc] [FA][FB] E2 | [DF][Dd] (c/B/) (=A/B/) [Ge]>[Ed] [Ec]2 | %2
 [EA][Ec][EG][EB] [CF][DA] E2 | [DF][Fd] (c/B/) (=A/B/) [Ge]>[Ge] [E_A]2 | %4
 [Fd]>[Fd] [Fd]>[Fd] [Fd]>[Ec] [Ec]2 | [Ac][GB][^F=A][GB] [Be]2 [Ge]2 | A6 z2 | %7
 [=Ec]>[EG] [FA][FB] [Ec]>[EG] [FA]2 | [=Ec]>[Ec] [G=d]/[Gd]/[G=e] [Ff]>F F2 | %9
 [AB]>[AB] [Ac][A=d] [Ge]>[GB] [GB]2 | [AB]>[AB] [Ac][A=d] [Ge]2 [Ad]2 | [Ge]6 z2 | %12
 [Gd][Gd] (d/f/) (e/d/) [Ec][EB] [EA]2 | [DF][DF] (F/d/) (c/B/) [Ae]2 [Ge]2 | A6 z2 |] %15
V:2
 x6 E2 | x2 FF x4 | x6 E2 | x2 FF x4 | x8 | x8 | A6 x2 | x8 | x11/2 F/ F2 | x8 | x8 | x8 | %12
 x2 GE x4 | x2 DF x4 | x8 |] %15
V:3
 A,[C,A,][E,D][E,D] [F,C][D,B,] [C,A,]2 | [D,A,][D,A,][D,B,][D,B,] [E,B,]>[E,B,] [A,C]2 | %2
 [A,C][A,C][E,B,][E,G,] [F,A,][F,A,] [C,A,]2 | [D,A,][D,A,][D,B,][D,B,] [E,D]>[E,D] [A,C]2 | %4
 [D,A,]>[D,A,] [D,A,]>[D,A,] [D,A,]>[A,,A,] [A,,A,]2 | [E,A,][E,B,][E,C][E,D] [E,E]2 [E,D]2 | %6
 [A,C]6 z2 | [C,C]>[C,C] [F,C][F,C] [C,C]>[C,C] [F,C]2 | %8
 [C,C]>[C,C] [C,=B,]/[C,B,]/[C,_B,] [F,A,]>[F,A,] [F,A,]2 | %9
 [B,,=D]>[B,,D] [B,,C][B,,B,] [E,B,]>[E,B,] [E,B,]2 | %10
 [B,,=D]>[B,,D] [B,,C][B,,B,] [B,,B,]2 [B,,B,]2 | [E,B,]6 z2 | %12
 [E,B,][E,B,][E,B,][E,B,] [A,C][A,D] [A,C]2 | [D,A,][D,A,][D,A,][D,B,] [E,C]2 [E,D]2 | [A,C]6 z2 |] %15
V:4
 A, x7 | x8 | x8 | x8 | x8 | x8 | x8 | x8 | x8 | x8 | x8 | x8 | x8 | x8 | x8 |] %15

